(
~listener = {|msg, time, replyAddr, recvPort|
	if (msg[0] != "/status.reply", {
		// Log all received messages to the console.
		("Message received on port" + recvPort + "from " + replyAddr.ip + ":" + replyAddr.port + ":" + msg).postln;
	});
};

thisProcess.addOSCRecvFunc(~listener);
)

NetAddr("localhost", 5712).sendMsg('/usr-kv', *{rrand(0.1, 1.0)}!4);

1+1